X: 50
T: Missa De sancta cruce / Sanctus
N: Derived from Rue1011d-Missa_De_sancta_cruce-Sanctus.krn
C: Pierre de la Rue
%%abc-version 2.0
%%abcx-abcm2ps-target-version 5.9.1 (29 Sep 2008)
%%abc-creator hum2abc beta
%%abcx-conversion-date 2019/02/17 08:01:11
%%abc-edited-by Jesse Rodin
%%abc-edited-by Chris Gage 09-22-2012
%%abcx-initial-encoding-date 2012/09/29/
%%humdrum-veritas 1280607387
%%humdrum-veritas-data 1223007174
%%linebreak <none>
%%barnumbers 0
L: 1/4
M: 3/1
Q: 1/2=120
V: 1 clef=treble
V: 2 clef=treble
V: 3 clef=treble-8
V: 4 clef=treble-8
V: 5 clef=bass
K: F
[V:1] z12 | 
[V:2] z12 | 
[V:3] z12 | 
[V:4] G8B4- | 
[V:5] z4z4G,4- | 
[V:1] z12 | 
[V:2] z12 | 
[V:3] z12 | 
[V:4] B2AGA2B2c4- | 
[V:5] G,2F,E,F,2G,2C,4- | 
[V:1] G8B4- | 
[V:2] z4z4D4- | 
[V:3] z12 | 
[V:4] c4B4G2B2- | 
[V:5] C,4z4G,4- | 
[V:1] B2AGA2B2c4- | 
[V:2] D4F6ED | 
[V:3] z12 | 
[V:4] B2c2d4c4- | 
[V:5] G,2F,E,D,4A,4- | 
[V:1] c4B4G2B2- | 
[V:2] E2F2G8 | 
[V:3] z12 | 
[V:4] c4d4_e2d2 | 
[V:5] A,4G,8 | 
[V:1] B2c2d3Bc2A2- | 
[V:2] G4z2G2E2F2- | 
[V:3] z12 | 
[V:4] _e4d4z2c2 | 
[V:5] z4z2G,2A,2F,2 | 
[V:1] A2B4G4c2- | 
[V:2] F2D4E3FGA | 
[V:3] z12 | 
[V:4] d4B2c4_e2 | 
[V:5] D,2G,3F,E,D,C,4 | 
[V:1] cBB2c2d3cc2 | 
[V:2] G12- | 
[V:3] G12- | 
[V:4] d4z2d2_e4 | 
[V:5] z2G,2C,2B,,2C,4 | 
[V:1] d2_e3dd4c2 | 
[V:2] G12 | 
[V:3] G12 | 
[V:4] d3Bc2d2_e4 | 
[V:5] z2G,2C,2B,,2C,4 | 
[V:1] d8d4 | 
[V:2] z2G2B3AF2G2 | 
[V:3] B12 | 
[V:4] d12- | 
[V:5] G,8z2G,2 | 
[V:1] f8d4 | 
[V:2] A6F3ED2 | 
[V:3] A8B4 | 
[V:4] d12 | 
[V:5] D,2F,3E,D,C,B,,4 | 
[V:1] z2c2A2c3BAG | 
[V:2] E2F2E2A4A2- | 
[V:3] c12- | 
[V:4] z2A2c3BAGF2- | 
[V:5] A,,8z4 | 
[V:1] F2A2G4F3G | 
[V:2] AGF4E2F4 | 
[V:3] c8A4 | 
[V:4] F2F2G4z2A2- | 
[V:5] z4C,4D,2F,2- | 
[V:1] ABcB/c/d4e4 | 
[V:2] z12 | 
[V:3] d2c4B3AA2 | 
[V:4] A2G4F3EE2 | 
[V:5] F,2E,2D,2B,,2C,4 | 
[V:1] d8z4 | 
[V:2] F4G2B3AG2- | 
[V:3] B12 | 
[V:4] F4z2F2G2B2 | 
[V:5] B,,8z4 | 
[V:1] d4d2B3cd2 | 
[V:2] G2^F2G8- | 
[V:3] z12 | 
[V:4] A4G2B4A2 | 
[V:5] D,4G,6F,2 | 
[V:1] G2B4AGF4 | 
[V:2] G8z4 | 
[V:3] z2B2G2B4A2- | 
[V:4] G4B3cd4 | 
[V:5] _E,8D,4 | 
[V:1] A3Bc4z2G2- | 
[V:2] z4G6FE | 
[V:3] A2c4G4B2- | 
[V:4] c2A2G2c4BA | 
[V:5] F,4C,4_E,4 | 
[V:1] GABcd2A4f2- | 
[V:2] D4F8 | 
[V:3] B2d4c4A2- | 
[V:4] B4A8 | 
[V:5] G,4F,8 | 
[V:1] fedcB2c3de2 | 
[V:2] F4G6FE | 
[V:3] A2B4G4c2- | 
[V:4] z4G3FEDG2- | 
[V:5] D,4_E,4C,4 | 
[V:1] f4e2c4BA | 
[V:2] D4E3FG2C2- | 
[V:3] c2B2c8 | 
[V:4] G2F2G2A2G2F2 | 
[V:5] D,4C,3D,E,2F,2- | 
[V:1] G3AA8 | 
[V:2] CDE2A,2F3EE2 | 
[V:3] c4c2d3cc2 | 
[V:4] G4F3GA4 | 
[V:5] F,2E,2F,2D,2A,,4 | 
[V:1] z2A4B2c3A | 
[V:2] F2C2z2G2A3G | 
[V:3] d2e4d4^c2 | 
[V:4] F2E2F2D2E4 | 
[V:5] z2C,2D,2B,,2A,,4 | 
[V:1] B2A4G2A2d2- | 
[V:2] FEDCB,4A,2F2- | 
[V:3] d12- | 
[V:4] D4G4F3G | 
[V:5] z4z4D,3E, | 
[V:1] def3edc/B/A2B2 | 
[V:2] F2D2F4z2B,2 | 
[V:3] d12- | 
[V:4] A2B4A3GG2 | 
[V:5] F,2B,,3C,D,E,F,2G,2 | 
[V:1] A2d3cA2B4- | 
[V:2] F8D2B,2 | 
[V:3] d12- | 
[V:4] A4D3EF4- | 
[V:5] D,3E,F,4B,,3C, | 
[V:1] B2A2A8 ||  
[V:2] F12 ||  
[V:3] d12 ||  
[V:4] F12 ||  
[V:5] D,12 ||  
[V:1]  [K:F] [K:clef=treble][M:3/1]F3GA2B3cd2 | 
[V:2]  [K:F] [K:clef=treble][M:3/1]z12 | 
[V:3]  [K:F] [K:clef=treble-8][M:3/1]z12 | 
[V:4]  [K:F] [K:clef=treble-8][M:3/1]z12 | 
[V:5]  [K:F] [K:clef=bass][M:3/1]z12 | 
[V:1] G3AB2c3BB2 | 
[V:2] B,3CD2E3FG2 | 
[V:3] z12 | 
[V:4] z12 | 
[V:5] z12 | 
[V:1] c3BG2A3Bc2 | 
[V:2] CDEFG2F3EE2 | 
[V:3] z12 | 
[V:4] z12 | 
[V:5] C,3D,E,2F,3G,A,2 | 
[V:1] d3cA2B3cd2 | 
[V:2] F4z2D3EF2 | 
[V:3] z12 | 
[V:4] z12 | 
[V:5] D,3E,F,2G,3F,D,2 | 
[V:1] G3AB2c3de2 | 
[V:2] G3FD2CDEFG2 | 
[V:3] z12 | 
[V:4] z12 | 
[V:5] E,3F,G,2A,3G,E,2 | 
[V:1] ABcde2f3ec2 | 
[V:2] A4G2F4E2 | 
[V:3] z12 | 
[V:4] z12 | 
[V:5] F,3E,C,2D,E,F,G,A,2 | 
[V:1] d3cA2B3cd2 | 
[V:2] D3EF2G4F2 | 
[V:3] z12 | 
[V:4] z12 | 
[V:5] B,3CD2G,3F,D,2 | 
[V:1] G4z4z4 | 
[V:2] E3FG2A3GE2 | 
[V:3] z12 | 
[V:4] z12 | 
[V:5] C,3D,E,2F,3G,A,2 | 
[V:1] d3cA2B3cd2 | 
[V:2] F3GA2D3EF2 | 
[V:3] z12 | 
[V:4] z12 | 
[V:5] D,4z4z4 | 
[V:1] GABcd2e3cd2 | 
[V:2] G3FD2C2z4 | 
[V:3] z12 | 
[V:4] z12 | 
[V:5] G,3A,B,2C3A,B,2 | 
[V:1] c3de2f3ec2 | 
[V:2] CDEFG2A3GE2 | 
[V:3] z12 | 
[V:4] z12 | 
[V:5] C3B,G,2F,3G,A,2 | 
[V:1] d3cA2B4AG | 
[V:2] F3GA2D3CC2 | 
[V:3] z12 | 
[V:4] z12 | 
[V:5] D,8E,4 | 
[V:1] F8F4 | 
[V:2] D3CA,2B,3CD2 | 
[V:3] z12 | 
[V:4] z12 | 
[V:5] D,8D,4 | 
[V:1] G6G2G4 | 
[V:2] G,3A,B,2C3DE2 | 
[V:3] z12 | 
[V:4] z12 | 
[V:5] E,8C,4 | 
[V:1] F3GA2B3AF2 | 
[V:2] A,2D4B,3CD2 | 
[V:3] z12 | 
[V:4] z12 | 
[V:5] D,3E,F,2G,3F,D,2 | 
[V:1] G2c2B2A3FG2 | 
[V:2] E3FG2C3DB,2 | 
[V:3] z12 | 
[V:4] z12 | 
[V:5] C,3D,E,2F,3D,E,2 | 
[V:1] A4z4z4 | 
[V:2] A,3B,C2D3CC2 | 
[V:3] z12 | 
[V:4] z12 | 
[V:5] A,,B,,C,D,E,2F,3G,A,2 | 
[V:1] FGABc2d3ef2 | 
[V:2] D3CA,2B,3CDB, | 
[V:3] z12 | 
[V:4] z12 | 
[V:5] D,4z4D,4 | 
[V:1] e3dB2c3BG2 | 
[V:2] C4z2F3EE2 | 
[V:3] z12 | 
[V:4] z12 | 
[V:5] C,D,E,F,G,2A,3B,C2 | 
[V:1] AFABc2d3ef2 | 
[V:2] F3GA2D3CA,B, | 
[V:3] z12 | 
[V:4] z12 | 
[V:5] F,4z4D,4 | 
[V:1] e3dB2c3BG2 | 
[V:2] C4z2F3EE2 | 
[V:3] z12 | 
[V:4] z12 | 
[V:5] C,D,E,F,G,2A,3B,C2 | 
[V:1] A3Bc2d3cA2 | 
[V:2] F3EE2F3GA2 | 
[V:3] z12 | 
[V:4] z12 | 
[V:5] F,3G,A,2D,3E,F,2 | 
[V:1] B3AF2G4F2 | 
[V:2] D4z2D3CC2 | 
[V:3] z12 | 
[V:4] z12 | 
[V:5] G,A,B,CD2G,2A,4 | 
[V:1] GABcd2e3dcB | 
[V:2] D3EF2G3FED | 
[V:3] z12 | 
[V:4] z12 | 
[V:5] G,4z2C,3D,E,2 | 
[V:1] A2G2BAGFG4 | 
[V:2] C2E4D3^CC2 | 
[V:3] z12 | 
[V:4] z12 | 
[V:5] F,2E,2G,F,E,D,E,4 | 
[V:1] F8G4 | 
[V:2] D2A,2DCB,A,B,4 | 
[V:3] z12 | 
[V:4] z12 | 
[V:5] D,8z4 | 
[V:1] A3FBAGFG4 | 
[V:2] A,4z2D3^CC2 | 
[V:3] z12 | 
[V:4] z12 | 
[V:5] z2F,2G,F,E,D,E,4 | 
[V:1] FGAG/A/B2A4G2 | 
[V:2] D2A,2DCB,A,B,4 | 
[V:3] z12 | 
[V:4] z12 | 
[V:5] D,4z2C,2D,2E,2 | 
[V:1] A12- | 
[V:2] A,12- | 
[V:3] z12 | 
[V:4] z12 | 
[V:5] F,2C,2F,E,D,C,D,4 | 
[V:1] A12 ||  
[V:2] A,12 ||  
[V:3] z12 ||  
[V:4] z12 ||  
[V:5] A,,12 ||  
[V:1]  [K:F] [K:clef=treble][M:2/1]A8- | 
[V:2]  [K:F] [K:clef=treble][M:2/1]D8- | 
[V:3]  [K:F] [K:clef=treble-8][M:2/1]f8- | 
[V:4]  [K:F] [K:clef=treble-8][M:2/1]A8 | 
[V:5]  [K:F] [K:clef=bass][M:2/1]D,8- | 
[V:1] A8 | 
[V:2] D8 | 
[V:3] f8- | 
[V:4] A6GF | 
[V:5] D,8- | 
[V:1] B4A4- | 
[V:2] D8 | 
[V:3] f8 | 
[V:4] F8- | 
[V:5] D,8- | 
[V:1] A2d3ef2- | 
[V:2] F3GA4- | 
[V:3] d8- | 
[V:4] F8 | 
[V:5] D,8 | 
[V:1] fedcB3A | 
[V:2] A4G4 | 
[V:3] d8 | 
[V:4] A4B4 | 
[V:5] F,4G,4 | 
[V:1] c8 | 
[V:2] E4F2ED | 
[V:3] c8- | 
[V:4] G4A4- | 
[V:5] C,4F,4- | 
[V:1] z4z2c2- | 
[V:2] C2F4E2 | 
[V:3] c8- | 
[V:4] A2GFG4 | 
[V:5] F,2E,D,C,4 | 
[V:1] c2BAG2A2- | 
[V:2] F4z4 | 
[V:3] c8- | 
[V:4] F4z4 | 
[V:5] z4z2F,2- | 
[V:1] A2G2A2F2 | 
[V:2] z4F4- | 
[V:3] c8 | 
[V:4] z4F3G | 
[V:5] F,E,E,2F,4- | 
[V:1] c8 | 
[V:2] F2G2A4 | 
[V:3] c4e4 | 
[V:4] A2B2c4 | 
[V:5] F,2E,D,C,4 | 
[V:1] d4f4 | 
[V:2] B8 | 
[V:3] d8 | 
[V:4] F8 | 
[V:5] B,,8 | 
[V:1] e8 | 
[V:2] G4GFED | 
[V:3] c8- | 
[V:4] z2c4BA | 
[V:5] C,8 | 
[V:1] edcBA4 | 
[V:2] E4F4- | 
[V:3] c8 | 
[V:4] G4A4- | 
[V:5] C,4F,4 | 
[V:1] z4d4- | 
[V:2] F4F4 | 
[V:3] c4d4 | 
[V:4] A4B4- | 
[V:5] F,E,D,C,B,,4- | 
[V:1] d4d4 | 
[V:2] B6AG | 
[V:3] f6e2 | 
[V:4] B2c2d4- | 
[V:5] B,,4B,4- | 
[V:1] d3ef2e2- | 
[V:2] F2G2A2D2 | 
[V:3] d6cB | 
[V:4] d2cBA2B2 | 
[V:5] B,2A,G,F,2G,2 | 
[V:1] e2d4^c2 | 
[V:2] A8 | 
[V:3] c2d2e4 | 
[V:4] A8 | 
[V:5] A,2D,2A,4 | 
[V:1] d8 | 
[V:2] z2A4F2 | 
[V:3] d8- | 
[V:4] z2A4B2- | 
[V:5] D,8- | 
[V:1] z4A4 | 
[V:2] D2G3^FF2 | 
[V:3] d8- | 
[V:4] B2AGA4 | 
[V:5] D,8 | 
[V:1] B6AG | 
[V:2] G8 | 
[V:3] d8 | 
[V:4] G8 | 
[V:5] z4G,4- | 
[V:1] B2A4G2 | 
[V:2] z8 | 
[V:3] z4d4 | 
[V:4] z8 | 
[V:5] G,2A,2B,4 | 
[V:1] A4d4- | 
[V:2] z4F4 | 
[V:3] c4B4 | 
[V:4] z4d4 | 
[V:5] A,4z2D,2- | 
[V:1] d4A3B | 
[V:2] A6GF | 
[V:3] A8 | 
[V:4] f6ed | 
[V:5] D,2D,3E,F,G, | 
[V:1] c2A2B4 | 
[V:2] E2F2D3E | 
[V:3] z4d4- | 
[V:4] c2d2B2AG | 
[V:5] A,2F,2G,4 | 
[V:1] A8 | 
[V:2] F8 | 
[V:3] d4d4 | 
[V:4] F4F3G | 
[V:5] D,8 | 
[V:1] z2A2B2G2 | 
[V:2] F4D4 | 
[V:3] c4B4 | 
[V:4] A2F2G4 | 
[V:5] z8 | 
[V:1] A2GFE4 | 
[V:2] E4A4 | 
[V:3] c8 | 
[V:4] z4A3B | 
[V:5] A,6G,F, | 
[V:1] z2e4e2 | 
[V:2] GFED^C3D | 
[V:3] G8 | 
[V:4] c2B2G4 | 
[V:5] E,8 | 
[V:1] f2d2e2c2 | 
[V:2] D4z4 | 
[V:3] z4c4 | 
[V:4] A8 | 
[V:5] D,4A,4 | 
[V:1] d2cBA4- | 
[V:2] D4F4- | 
[V:3] B4d4 | 
[V:4] G4F4 | 
[V:5] z4D,4 | 
[V:1] A4d3c | 
[V:2] F2EDF3G | 
[V:3] c4B2A2- | 
[V:4] A4F4 | 
[V:5] F,4D,4- | 
[V:1] A2B4A2- | 
[V:2] A2D2z2A2 | 
[V:3] A2d3cA2 | 
[V:4] F3GABc2 | 
[V:5] D,4F,4 | 
[V:1] AGG2A4 | 
[V:2] GFEDF2D2- | 
[V:3] B4A4 | 
[V:4] B2d3cA2- | 
[V:5] G,4D,2F,2 | 
[V:1] z4z2f2- | 
[V:2] D2^C2D4- | 
[V:3] z4z2d2- | 
[V:4] A2G2A4 | 
[V:5] E,4D,4 | 
[V:1] f2e2d2c2 | 
[V:2] D8- | 
[V:3] d2c2B2A2 | 
[V:4] z8 | 
[V:5] z8 | 
[V:1] B2A4G2 | 
[V:2] D4D4 | 
[V:3] G2A2B4 | 
[V:4] z8 | 
[V:5] z8 | 
[V:1] A8- | 
[V:2] E8 | 
[V:3] A8- | 
[V:4] c3BA2G2 | 
[V:5] z2C4B,2 | 
[V:1] A8- | 
[V:2] z2E2FEDC | 
[V:3] A8- | 
[V:4] F2E2A3G | 
[V:5] A,2G,2F,2E,2 | 
[V:1] A8- | 
[V:2] D2E4D2 | 
[V:3] A8- | 
[V:4] F2E2F4 | 
[V:5] D,2C,2D,4 | 
[V:1] A8 ||  
[V:2] E8 ||  
[V:3] A8 ||  
[V:4] E8 ||  
[V:5] A,,8 ||  
[V:1]  [K:F] [K:clef=treble][M:2/1]z8 | 
[V:2]  [K:F] [K:clef=treble][M:2/1]z8 | 
[V:3]  [K:F] [K:clef=treble-8][M:2/1]z8 | 
[V:4]  [K:F] [K:clef=treble-8][M:2/1]e4e2f2- | 
[V:5]  [K:F] [K:clef=bass][M:2/1]z8 | 
[V:1] z8 | 
[V:2] z8 | 
[V:3] z8 | 
[V:4] f2ede2c2 | 
[V:5] A,8 | 
[V:1] z8 | 
[V:2] z8 | 
[V:3] z8 | 
[V:4] d4c4- | 
[V:5] B,4A,2A,2- | 
[V:1] z8 | 
[V:2] z8 | 
[V:3] z8 | 
[V:4] c4z2e2 | 
[V:5] A,2G,F,G,4 | 
[V:1] z8 | 
[V:2] z8 | 
[V:3] z8 | 
[V:4] f2d2f4 | 
[V:5] F,8 | 
[V:1] z8 | 
[V:2] z8 | 
[V:3] z8 | 
[V:4] e2c2d2g2- | 
[V:5] z2A,2B,4 | 
[V:1] z8 | 
[V:2] z4G4 | 
[V:3] z8 | 
[V:4] gff4e2 | 
[V:5] A,2F,2G,4 | 
[V:1] z2c2d4 | 
[V:2] A4A4 | 
[V:3] z8 | 
[V:4] f8 | 
[V:5] F,8 | 
[V:1] c2A2B4 | 
[V:2] A4z2G2 | 
[V:3] z8 | 
[V:4] z8 | 
[V:5] z8 | 
[V:1] A3Bc2d2- | 
[V:2] A3GF2D2 | 
[V:3] z8 | 
[V:4] z8 | 
[V:5] z8 | 
[V:1] dcc2d2f2- | 
[V:2] E4D4 | 
[V:3] z8 | 
[V:4] z4d4 | 
[V:5] z2A,2B,4 | 
[V:1] fee4c2 | 
[V:2] z2A4A2- | 
[V:3] z8 | 
[V:4] c4c3B | 
[V:5] A,4A,3G, | 
[V:1] d2e2c4 | 
[V:2] AFG2E4- | 
[V:3] z8 | 
[V:4] A2G2A2c2- | 
[V:5] F,2E,2z2A,2- | 
[V:1] z4z2c2- | 
[V:2] E2F2E2A2- | 
[V:3] z8 | 
[V:4] c2A2B2c2 | 
[V:5] A,2F,2G,2A,2 | 
[V:1] c2A2B2c2 | 
[V:2] A2F2G2A2 | 
[V:3] z8 | 
[V:4] A4z4 | 
[V:5] F,4z4 | 
[V:1] A3FG2F2 | 
[V:2] F3DE2F2 | 
[V:3] z8 | 
[V:4] z8 | 
[V:5] z8 | 
[V:1] c8- | 
[V:2] E2A,2A4- | 
[V:3] z8 | 
[V:4] e6f2- | 
[V:5] A,8 | 
[V:1] c4d4 | 
[V:2] A4G4 | 
[V:3] z8 | 
[V:4] f2e3dd2 | 
[V:5] A,4B,4 | 
[V:1] c3defe2- | 
[V:2] A6GF | 
[V:3] z8 | 
[V:4] e8 | 
[V:5] A,8 | 
[V:1] e2d4^c2 | 
[V:2] GFEDE4 | 
[V:3] z8 | 
[V:4] z8 | 
[V:5] z8 | 
[V:1] d8 | 
[V:2] D4z4 | 
[V:3] z8 | 
[V:4] z4d4 | 
[V:5] D,3E,F,2G,2 | 
[V:1] z8 | 
[V:2] z8 | 
[V:3] z8 | 
[V:4] e6f2- | 
[V:5] E,2A,4D,2 | 
[V:1] z8 | 
[V:2] z8 | 
[V:3] z8 | 
[V:4] f2edc2d2- | 
[V:5] A,4A,2B,2- | 
[V:1] z4d4 | 
[V:2] z8 | 
[V:3] z8 | 
[V:4] dAc2B4 | 
[V:5] B,2A,4G,2 | 
[V:1] c3BAGA2- | 
[V:2] E6F2- | 
[V:3] z8 | 
[V:4] A4z4 | 
[V:5] A,8 | 
[V:1] A2GFG4 | 
[V:2] F2EDE4 | 
[V:3] z8 | 
[V:4] z8 | 
[V:5] z8 | 
[V:1] F8 | 
[V:2] D8 | 
[V:3] z8 | 
[V:4] A6B2- | 
[V:5] D,8 | 
[V:1] z4F4 | 
[V:2] z4D4 | 
[V:3] z8 | 
[V:4] B2AGA4 | 
[V:5] D,4D,4 | 
[V:1] G2A3GFE | 
[V:2] C3B,D2F2- | 
[V:3] z8 | 
[V:4] z8 | 
[V:5] E,2F,2D,4 | 
[V:1] D2F2E4 | 
[V:2] FED4^C2 | 
[V:3] z8 | 
[V:4] z4A4- | 
[V:5] z8 | 
[V:1] D4z4 | 
[V:2] D8 | 
[V:3] z8 | 
[V:4] A2B4AG | 
[V:5] D,4G,4 | 
[V:1] z8 | 
[V:2] z4G4 | 
[V:3] z8 | 
[V:4] A3FG4 | 
[V:5] F,2F,3E,E,2 | 
[V:1] z2c3BAG | 
[V:2] A2A3GFE | 
[V:3] z8 | 
[V:4] F4z4 | 
[V:5] F,8 | 
[V:1] F2A2G4 | 
[V:2] DCF4E2 | 
[V:3] z8 | 
[V:4] z4c4- | 
[V:5] z8 | 
[V:1] F4z4 | 
[V:2] A4A2G2- | 
[V:3] z8 | 
[V:4] c2d4cB | 
[V:5] F,3E,F,2G,2 | 
[V:1] z4c4 | 
[V:2] GFF4E2 | 
[V:3] z8 | 
[V:4] c2BAG4 | 
[V:5] C,8 | 
[V:1] A2d4c2- | 
[V:2] F3EFEDC | 
[V:3] z8 | 
[V:4] F8 | 
[V:5] z8 | 
[V:1] c=B=B2c4 | 
[V:2] D4C4- | 
[V:3] z8 | 
[V:4] z4e4 | 
[V:5] z4C,4 | 
[V:1] z8 | 
[V:2] C4z4 | 
[V:3] z8 | 
[V:4] f3efef2- | 
[V:5] F,3G,A,G,A,2- | 
[V:1] z8 | 
[V:2] z8 | 
[V:3] z8 | 
[V:4] f2edcdef | 
[V:5] A,2G,F,A,2G,F, | 
[V:1] z8 | 
[V:2] z4E4 | 
[V:3] z8 | 
[V:4] e2d4^c2 | 
[V:5] G,F,E,D,E,4 | 
[V:1] z4A4 | 
[V:2] F4F4 | 
[V:3] z8 | 
[V:4] d8- | 
[V:5] D,8 | 
[V:1] B3ABAB2- | 
[V:2] G4F2G2- | 
[V:3] z8 | 
[V:4] d8- | 
[V:5] G,4z2G,2- | 
[V:1] B2AGFGAB | 
[V:2] GFD2A3G | 
[V:3] z8 | 
[V:4] d8 | 
[V:5] G,2F,E,D,4 | 
[V:1] A2G4^F2 | 
[V:2] F2EDC3D | 
[V:3] z8 | 
[V:4] z8 | 
[V:5] F,2G,2A,4 | 
[V:1] G3ABGB2- | 
[V:2] D8 | 
[V:3] z8 | 
[V:4] z4d4 | 
[V:5] G,8 | 
[V:1] B2A4G2 | 
[V:2] [M:3/1](3z4D6E2 | 
[V:3] z8 | 
[V:4] c4B4 | 
[V:5] z4G,4 | 
[V:1] A2F2G4 | 
[V:2] (3:2:5F4D2E2^C3=B, | 
[V:3] z8 | 
[V:4] A4z4 | 
[V:5] F,4E,4 | 
[V:1] z2F2G4 | 
[V:2] [M:2/1]D4z4 | 
[V:3] z8 | 
[V:4] z2A4G2 | 
[V:5] D,2F,2E,4 | 
[V:1] z2F2G4 | 
[V:2] D8 | 
[V:3] z8 | 
[V:4] A4B4 | 
[V:5] D,4z4 | 
[V:1] F2D2E2D2- | 
[V:2] D2F2E2F2- | 
[V:3] z8 | 
[V:4] A8 | 
[V:5] D,4C,2D,2- | 
[V:1] DEFGA2F2 | 
[V:2] F2EDC2D2- | 
[V:3] z8 | 
[V:4] z4z2A2- | 
[V:5] D,C,D,E,F,2D,2 | 
[V:1] G4F4- | 
[V:2] D2^C2D4- | 
[V:3] z8 | 
[V:4] A2G2A4 | 
[V:5] E,4D,4 | 
[V:1] F4z2F2 | 
[V:2] D4z2F2- | 
[V:3] z8 | 
[V:4] B4A2d2- | 
[V:5] z2D,4D,2- | 
[V:1] A3Bc2d2- | 
[V:2] F2EDC2B,2 | 
[V:3] z8 | 
[V:4] d2c4f2- | 
[V:5] D,E,F,G,A,2D,2- | 
[V:1] d2c4f2- | 
[V:2] A,4A,4 | 
[V:3] z8 | 
[V:4] f2f2f4 | 
[V:5] D,2F,3E,D,2 | 
[V:1] fee2d2e2- | 
[V:2] z2C2D2C2 | 
[V:3] z8 | 
[V:4] g8- | 
[V:5] C,4B,,2C,2- | 
[V:1] edcBA2B2 | 
[V:2] E4C2D2- | 
[V:3] z8 | 
[V:4] g4f4 | 
[V:5] C,D,E,2F,2D,2- | 
[V:1] A2d4c2 | 
[V:2] DEFGA4 | 
[V:3] z8 | 
[V:4] f2ede4 | 
[V:5] D,2C,B,,A,,4 | 
[V:1] d2A2d3c | 
[V:2] F4G2A2 | 
[V:3] z8 | 
[V:4] d3cB2A2 | 
[V:5] z8 | 
[V:1] BAB4A2- | 
[V:2] F3EFEDC | 
[V:3] z8 | 
[V:4] d3cdcBA | 
[V:5] z8 | 
[V:1] A2G2A4- | 
[V:2] D4E4 | 
[V:3] z8 | 
[V:4] B4A4- | 
[V:5] z4z2C,2 | 
[V:1] A8- | 
[V:2] z2C2D2C2 | 
[V:3] z8 | 
[V:4] A8- | 
[V:5] D,2E,2F,3G, | 
[V:1] A8- | 
[V:2] F6ED | 
[V:3] z8 | 
[V:4] A8- | 
[V:5] A,4A,,4- | 
[V:1] A8 |]  
[V:2] C2D2E4 |]  
[V:3] z8 |]  
[V:4] A8 |]  
[V:5] A,,8 |]  



